;FLAVOR:UltiGCode
;TIME:1700
;MATERIAL:1510
;MATERIAL2:0
;NOZZLE_DIAMETER:0.4
;Generated with Cura_SteamEngine 3.1.0
M82 ; absolute extrusion mode

;LAYER_COUNT:29
;LAYER:0
M107
G0 F3600 X96.657 Y95.478 Z0.3
;TYPE:SKIRT
G1 F1200 X97.052 Y95.094 E0.06611
G1 X97.498 Y94.77 E0.13226
G1 X97.986 Y94.515 E0.19833
G1 X98.506 Y94.332 E0.26448
G1 X99.047 Y94.227 E0.33061
G1 X99.5 Y94.2 E0.38507
G1 X123.5 Y94.2 E3.26507
G1 X124.05 Y94.24 E3.33125
G1 X124.588 Y94.359 E3.39737
G1 X125.103 Y94.555 E3.46349
G1 X125.584 Y94.823 E3.52956
G1 X126.022 Y95.157 E3.59566
G1 X126.406 Y95.552 E3.66177
G1 X126.73 Y95.998 E3.72792
G1 X126.985 Y96.486 E3.79399
G1 X127.168 Y97.006 E3.86015
G1 X127.273 Y97.547 E3.92628
G1 X127.3 Y98 E3.98073
G1 X127.3 Y122 E6.86073
G1 X127.26 Y122.55 E6.92691
G1 X127.141 Y123.088 E6.99303
G1 X126.945 Y123.603 E7.05915
G1 X126.677 Y124.084 E7.12523
G1 X126.343 Y124.522 E7.19133
G1 X125.948 Y124.906 E7.25743
G1 X125.502 Y125.23 E7.32358
G1 X125.014 Y125.485 E7.38966
G1 X124.494 Y125.668 E7.45581
G1 X123.953 Y125.773 E7.52194
G1 X123.5 Y125.8 E7.5764
G1 X117.121 Y125.8 E8.34188
G1 X117.116 Y125.808 E8.34301
G1 X116.639 Y126.431 E8.43716
G1 X116.273 Y126.843 E8.5033
G1 X115.932 Y127.138 E8.5574
G1 X115.309 Y127.615 E8.65156
G1 X114.848 Y127.918 E8.71776
G1 X114.456 Y128.107 E8.76998
G1 X113.736 Y128.406 E8.86354
G1 X113.214 Y128.58 E8.92956
G1 X112.777 Y128.664 E8.98296
G1 X111.998 Y128.767 E9.07726
G1 X111.448 Y128.8 E9.14338
G1 X111.001 Y128.767 E9.19716
G1 X110.223 Y128.664 E9.29134
G1 X109.684 Y128.552 E9.3574
G1 X109.266 Y128.407 E9.41049
G1 X108.545 Y128.108 E9.50415
G1 X108.053 Y127.861 E9.57022
G1 X107.689 Y127.613 E9.62307
G1 X107.067 Y127.136 E9.71713
G1 X106.655 Y126.77 E9.78326
G1 X106.364 Y126.434 E9.8366
G1 X105.886 Y125.811 E9.93083
G1 X105.879 Y125.8 E9.9324
G1 X99.5 Y125.8 E10.69788
G1 X98.95 Y125.76 E10.76405
G1 X98.412 Y125.641 E10.83017
G1 X97.897 Y125.445 E10.8963
G1 X97.416 Y125.177 E10.96237
G1 X96.978 Y124.843 E11.02847
G1 X96.594 Y124.448 E11.09458
G1 X96.27 Y124.002 E11.16073
G1 X96.015 Y123.514 E11.2268
G1 X95.832 Y122.994 E11.29295
G1 X95.727 Y122.453 E11.35908
G1 X95.7 Y122 E11.41354
G1 X95.7 Y98 E14.29354
G1 X95.74 Y97.45 E14.35971
G1 X95.859 Y96.912 E14.42584
G1 X96.055 Y96.397 E14.49196
G1 X96.323 Y95.916 E14.55803
G1 X96.657 Y95.478 E14.62413
G0 F3600 X97.052 Y95.64
G1 F1200 X97.442 Y95.294 E14.6867
G1 X97.88 Y95.011 E14.74927
G1 X98.355 Y94.798 E14.81174
G1 X98.858 Y94.661 E14.8743
G1 X99.5 Y94.6 E14.95169
G1 X123.5 Y94.6 E17.83169
G1 X124.02 Y94.64 E17.89427
G1 X124.527 Y94.759 E17.95676
G1 X125.01 Y94.954 E18.01927
G1 X125.458 Y95.22 E18.08179
G1 X125.86 Y95.552 E18.14436
G1 X126.206 Y95.942 E18.20692
G1 X126.489 Y96.38 E18.2695
G1 X126.702 Y96.855 E18.33196
G1 X126.839 Y97.358 E18.39452
G1 X126.9 Y98 E18.47191
G1 X126.9 Y122 E21.35191
G1 X126.86 Y122.52 E21.41449
G1 X126.741 Y123.027 E21.47699
G1 X126.546 Y123.51 E21.53949
G1 X126.28 Y123.958 E21.60202
G1 X125.948 Y124.36 E21.66458
G1 X125.558 Y124.706 E21.72714
G1 X125.12 Y124.989 E21.78972
G1 X124.645 Y125.202 E21.85219
G1 X124.142 Y125.339 E21.91475
G1 X123.5 Y125.4 E21.99213
G1 X116.912 Y125.4 E22.78269
G1 X116.799 Y125.565 E22.80669
G1 X116.322 Y126.188 E22.90085
G1 X115.974 Y126.576 E22.96339
G1 X115.689 Y126.821 E23.00849
G1 X115.066 Y127.298 E23.10265
G1 X114.629 Y127.582 E23.16519
G1 X114.303 Y127.738 E23.20856
G1 X113.583 Y128.037 E23.30211
G1 X113.088 Y128.199 E23.36461
G1 X112.725 Y128.268 E23.40895
G1 X111.946 Y128.371 E23.50325
G1 X111.425 Y128.399 E23.56586
G1 X111.054 Y128.371 E23.6105
G1 X110.276 Y128.268 E23.70468
G1 X109.766 Y128.16 E23.76724
G1 X109.42 Y128.038 E23.81126
G1 X108.699 Y127.739 E23.90493
G1 X108.234 Y127.503 E23.9675
G1 X107.932 Y127.296 E24.01144
G1 X107.31 Y126.819 E24.1055
G1 X106.922 Y126.471 E24.16804
G1 X106.682 Y126.191 E24.2123
G1 X106.204 Y125.568 E24.30653
G1 X106.094 Y125.4 E24.33062
G1 X99.5 Y125.4 E25.1219
G1 X98.98 Y125.36 E25.18449
G1 X98.473 Y125.241 E25.24698
G1 X97.99 Y125.046 E25.30949
G1 X97.542 Y124.78 E25.37201
G1 X97.14 Y124.448 E25.43457
G1 X96.794 Y124.058 E25.49714
G1 X96.511 Y123.62 E25.55971
G1 X96.298 Y123.145 E25.62218
G1 X96.161 Y122.642 E25.68474
G1 X96.1 Y122 E25.76213
G1 X96.1 Y98 E28.64213
G1 X96.14 Y97.48 E28.70471
G1 X96.259 Y96.973 E28.7672
G1 X96.454 Y96.49 E28.82971
G1 X96.72 Y96.042 E28.89223
G1 X97.052 Y95.64 E28.9548
G0 F3600 X97.118 Y96.176
G1 F1200 X97.446 Y95.813 E29.0135
G1 X97.829 Y95.508 E29.07226
G1 X98.257 Y95.27 E29.13102
G1 X98.717 Y95.104 E29.18971
G1 X99.198 Y95.015 E29.24841
G1 X99.5 Y95 E29.28469
G1 X123.5 Y95 E32.16469
G1 X123.988 Y95.04 E32.22345
G1 X124.463 Y95.159 E32.28221
G1 X124.912 Y95.353 E32.34091
G1 X125.324 Y95.618 E32.39969
G1 X125.687 Y95.946 E32.4584
G1 X125.992 Y96.329 E32.51715
G1 X126.23 Y96.757 E32.57592
G1 X126.396 Y97.217 E32.6346
G1 X126.485 Y97.698 E32.6933
G1 X126.5 Y98 E32.72959
G1 X126.5 Y122 E35.60959
G1 X126.46 Y122.488 E35.66834
G1 X126.341 Y122.963 E35.7271
G1 X126.147 Y123.412 E35.7858
G1 X125.882 Y123.824 E35.84458
G1 X125.554 Y124.187 E35.90329
G1 X125.171 Y124.492 E35.96204
G1 X124.743 Y124.73 E36.02081
G1 X124.283 Y124.896 E36.07949
G1 X123.802 Y124.985 E36.13819
G1 X123.5 Y125 E36.17448
G1 X116.689 Y125 E36.9918
G1 X116.647 Y125.081 E37.00275
G1 X116.481 Y125.322 E37.03786
G1 X116.004 Y125.945 E37.13202
G1 X115.676 Y126.308 E37.19073
G1 X115.446 Y126.503 E37.22691
G1 X114.823 Y126.98 E37.32107
G1 X114.411 Y127.245 E37.37985
G1 X114.15 Y127.369 E37.41453
G1 X113.43 Y127.668 E37.50808
G1 X112.964 Y127.818 E37.56683
G1 X112.672 Y127.871 E37.60244
G1 X111.893 Y127.974 E37.69673
G1 X111.404 Y127.998 E37.75549
G1 X111.106 Y127.974 E37.79136
G1 X110.328 Y127.871 E37.88554
G1 X109.85 Y127.767 E37.94424
G1 X109.573 Y127.668 E37.97954
G1 X108.852 Y127.369 E38.0732
G1 X108.416 Y127.145 E38.13202
G1 X108.175 Y126.979 E38.16714
G1 X107.553 Y126.502 E38.2612
G1 X107.191 Y126.173 E38.3199
G1 X106.999 Y125.947 E38.35549
G1 X106.521 Y125.324 E38.44972
G1 X106.312 Y125 E38.49598
G1 X99.5 Y125 E39.31342
G1 X99.012 Y124.96 E39.37218
G1 X98.537 Y124.841 E39.43094
G1 X98.088 Y124.647 E39.48964
G1 X97.676 Y124.382 E39.54842
G1 X97.313 Y124.054 E39.60713
G1 X97.008 Y123.671 E39.66588
G1 X96.77 Y123.243 E39.72465
G1 X96.604 Y122.783 E39.78333
G1 X96.515 Y122.302 E39.84203
G1 X96.5 Y122 E39.87832
G1 X96.5 Y98 E42.75832
G1 X96.54 Y97.512 E42.81707
G1 X96.659 Y97.037 E42.87583
G1 X96.853 Y96.588 E42.93453
G1 X97.118 Y96.176 E42.99331
G0 F3600 X97.515 Y96.321
G1 F1200 X97.838 Y96 E43.04796
G1 X98.213 Y95.741 E43.10265
G1 X98.627 Y95.551 E43.15731
G1 X99.068 Y95.436 E43.212
G1 X99.5 Y95.4 E43.26402
G1 X123.5 Y95.4 E46.14402
G1 X123.954 Y95.44 E46.19871
G1 X124.394 Y95.558 E46.25338
G1 X124.806 Y95.752 E46.30802
G1 X125.179 Y96.015 E46.36279
G1 X125.5 Y96.338 E46.41744
G1 X125.759 Y96.713 E46.47213
G1 X125.949 Y97.127 E46.52679
G1 X126.064 Y97.568 E46.58148
G1 X126.1 Y98 E46.6335
G1 X126.1 Y122 E49.5135
G1 X126.06 Y122.454 E49.56819
G1 X125.942 Y122.894 E49.62285
G1 X125.748 Y123.306 E49.6775
G1 X125.485 Y123.679 E49.73227
G1 X125.162 Y124 E49.78691
G1 X124.787 Y124.259 E49.8416
G1 X124.373 Y124.449 E49.89627
G1 X123.932 Y124.564 E49.95095
G1 X123.5 Y124.6 E50.00297
G1 X116.439 Y124.6 E50.85029
G1 X116.163 Y125.079 E50.91663
G1 X115.686 Y125.702 E51.01079
G1 X115.379 Y126.038 E51.06541
G1 X115.203 Y126.185 E51.09292
G1 X114.58 Y126.662 E51.18708
G1 X113.996 Y126.999 E51.26799
G1 X113.276 Y127.298 E51.36155
G1 X112.62 Y127.475 E51.44308
G1 X111.841 Y127.578 E51.53737
G1 X111.159 Y127.578 E51.61921
G1 X110.381 Y127.475 E51.71339
G1 X109.726 Y127.299 E51.79478
G1 X109.005 Y127 E51.88844
G1 X108.419 Y126.661 E51.96968
G1 X107.797 Y126.184 E52.06374
G1 X107.316 Y125.704 E52.14529
G1 X106.838 Y125.081 E52.23952
G1 X106.594 Y124.696 E52.29421
G1 X106.549 Y124.6 E52.30694
G1 X99.5 Y124.6 E53.15282
G1 X99.046 Y124.56 E53.20751
G1 X98.606 Y124.442 E53.26217
G1 X98.194 Y124.248 E53.31682
G1 X97.821 Y123.985 E53.37159
G1 X97.5 Y123.662 E53.42623
G1 X97.241 Y123.287 E53.48092
G1 X97.051 Y122.873 E53.53558
G1 X96.936 Y122.432 E53.59027
G1 X96.9 Y122 E53.64229
G1 X96.9 Y98 E56.52229
G1 X96.94 Y97.546 E56.57698
G1 X97.058 Y97.106 E56.63165
G1 X97.252 Y96.694 E56.6863
G1 X97.515 Y96.321 E56.74106
G0 F3600 X97.91 Y96.48
G1 F1200 X98.227 Y96.206 E56.79134
G1 X98.59 Y95.997 E56.84161
G1 X98.987 Y95.861 E56.89197
G1 X99.5 Y95.8 E56.95396
G1 X123.5 Y95.8 E59.83396
G1 X123.917 Y95.84 E59.88423
G1 X124.319 Y95.958 E59.93451
G1 X124.691 Y96.151 E59.9848
G1 X125.02 Y96.41 E60.03504
G1 X125.294 Y96.727 E60.08532
G1 X125.503 Y97.09 E60.13559
G1 X125.639 Y97.487 E60.18594
G1 X125.7 Y98 E60.24794
G1 X125.7 Y122 E63.12794
G1 X125.66 Y122.417 E63.17821
G1 X125.542 Y122.819 E63.22848
G1 X125.349 Y123.191 E63.27877
G1 X125.09 Y123.52 E63.32902
G1 X124.773 Y123.794 E63.3793
G1 X124.41 Y124.003 E63.42956
G1 X124.013 Y124.139 E63.47992
G1 X123.5 Y124.2 E63.54191
G1 X116.19 Y124.2 E64.41911
G1 X116.132 Y124.339 E64.43719
G1 X115.846 Y124.835 E64.50589
G1 X115.369 Y125.458 E64.60005
G1 X114.959 Y125.868 E64.66963
G1 X114.336 Y126.345 E64.76379
G1 X113.843 Y126.63 E64.83212
G1 X113.123 Y126.929 E64.92568
G1 X112.567 Y127.078 E64.99475
G1 X111.788 Y127.181 E65.08904
G1 X111.211 Y127.181 E65.15828
G1 X110.433 Y127.078 E65.25246
G1 X109.879 Y126.929 E65.3213
G1 X109.158 Y126.63 E65.41496
G1 X108.662 Y126.344 E65.48367
G1 X108.04 Y125.867 E65.57773
G1 X107.634 Y125.46 E65.64672
G1 X107.156 Y124.837 E65.74095
G1 X106.867 Y124.337 E65.81025
G1 X106.81 Y124.2 E65.82805
G1 X99.5 Y124.2 E66.70525
G1 X99.083 Y124.16 E66.75552
G1 X98.681 Y124.042 E66.8058
G1 X98.309 Y123.849 E66.85609
G1 X97.98 Y123.59 E66.90634
G1 X97.706 Y123.273 E66.95662
G1 X97.497 Y122.91 E67.00688
G1 X97.361 Y122.513 E67.05724
G1 X97.3 Y122 E67.11923
G1 X97.3 Y98 E69.99923
G1 X97.34 Y97.583 E70.0495
G1 X97.458 Y97.181 E70.09978
G1 X97.651 Y96.809 E70.15007
G1 X97.91 Y96.48 E70.20031
G0 F3600 X98.048 Y96.936
G1 F1200 X98.303 Y96.655 E70.24585
G1 X98.612 Y96.435 E70.29137
G1 X98.959 Y96.283 E70.33683
G1 X99.5 Y96.2 E70.4025
G1 X123.5 Y96.2 E73.2825
G1 X123.877 Y96.24 E73.328
G1 X124.237 Y96.358 E73.37346
G1 X124.564 Y96.548 E73.41884
G1 X124.845 Y96.803 E73.46438
G1 X125.065 Y97.112 E73.5099
G1 X125.217 Y97.459 E73.55536
G1 X125.3 Y98 E73.62104
G1 X125.3 Y122 E76.50104
G1 X125.26 Y122.377 E76.54653
G1 X125.142 Y122.737 E76.59199
G1 X124.952 Y123.064 E76.63737
G1 X124.697 Y123.345 E76.68291
G1 X124.388 Y123.565 E76.72843
G1 X124.041 Y123.717 E76.77389
G1 X123.5 Y123.8 E76.83957
G1 X115.922 Y123.8 E77.74893
G1 X115.762 Y124.186 E77.79907
G1 X115.528 Y124.592 E77.8553
G1 X115.051 Y125.215 E77.94946
G1 X114.716 Y125.55 E78.00631
G1 X114.093 Y126.027 E78.10046
G1 X113.689 Y126.26 E78.15643
G1 X112.969 Y126.559 E78.24998
G1 X112.515 Y126.681 E78.3064
G1 X111.736 Y126.784 E78.40069
G1 X111.264 Y126.784 E78.45733
G1 X110.486 Y126.681 E78.5515
G1 X110.032 Y126.56 E78.60789
G1 X109.311 Y126.261 E78.70155
G1 X108.906 Y126.026 E78.75774
G1 X108.284 Y125.549 E78.8518
G1 X107.951 Y125.217 E78.90823
G1 X107.473 Y124.594 E79.00246
G1 X107.237 Y124.184 E79.05923
G1 X107.079 Y123.8 E79.10905
G1 X99.5 Y123.8 E80.01853
G1 X99.123 Y123.76 E80.06403
G1 X98.763 Y123.642 E80.10949
G1 X98.436 Y123.452 E80.15487
G1 X98.155 Y123.197 E80.20041
G1 X97.935 Y122.888 E80.24593
G1 X97.783 Y122.541 E80.29139
G1 X97.7 Y122 E80.35707
G1 X97.7 Y98 E83.23707
G1 X97.74 Y97.623 E83.28256
G1 X97.858 Y97.263 E83.32802
G1 X98.048 Y96.936 E83.3734
G0 F3600 X98.445 Y97.079
G1 F1200 X98.693 Y96.856 E83.41343
G1 X98.987 Y96.697 E83.45353
G1 X99.311 Y96.613 E83.4937
G1 X99.5 Y96.6 E83.51643
G1 X123.5 Y96.6 E86.39643
G1 X123.832 Y96.64 E86.43656
G1 X124.144 Y96.757 E86.47655
G1 X124.421 Y96.945 E86.51672
G1 X124.644 Y97.193 E86.55674
G1 X124.803 Y97.487 E86.59685
G1 X124.887 Y97.811 E86.63702
G1 X124.9 Y98 E86.65975
G1 X124.9 Y122 E89.53975
G1 X124.86 Y122.332 E89.57988
G1 X124.743 Y122.644 E89.61986
G1 X124.555 Y122.921 E89.66004
G1 X124.307 Y123.144 E89.70006
G1 X124.013 Y123.303 E89.74017
G1 X123.689 Y123.387 E89.78033
G1 X123.5 Y123.4 E89.80307
G1 X115.655 Y123.4 E90.74447
G1 X115.393 Y124.033 E90.82668
G1 X115.211 Y124.349 E90.87044
G1 X114.734 Y124.972 E90.96459
G1 X114.473 Y125.233 E91.00889
G1 X113.85 Y125.71 E91.10304
G1 X113.536 Y125.891 E91.14653
G1 X112.816 Y126.19 E91.24009
G1 X112.463 Y126.285 E91.28396
G1 X111.684 Y126.388 E91.37825
G1 X111.316 Y126.388 E91.42241
G1 X110.538 Y126.285 E91.51658
G1 X110.186 Y126.19 E91.56033
G1 X109.465 Y125.891 E91.654
G1 X109.149 Y125.709 E91.69776
G1 X108.527 Y125.232 E91.79182
G1 X108.268 Y124.973 E91.83577
G1 X107.79 Y124.35 E91.93
G1 X107.607 Y124.032 E91.97403
G1 X107.346 Y123.4 E92.05608
G1 X99.5 Y123.4 E92.9976
G1 X99.168 Y123.36 E93.03773
G1 X98.856 Y123.243 E93.07772
G1 X98.579 Y123.055 E93.11789
G1 X98.356 Y122.807 E93.15791
G1 X98.197 Y122.513 E93.19802
G1 X98.113 Y122.189 E93.23819
G1 X98.1 Y122 E93.26092
G1 X98.1 Y98 E96.14092
G1 X98.14 Y97.668 E96.18105
G1 X98.257 Y97.356 E96.22104
G1 X98.445 Y97.079 E96.26121
G0 F3600 X98.839 Y97.249
G1 F1200 X99.075 Y97.095 E96.29502
G1 X99.345 Y97.012 E96.32892
G1 X99.5 Y97 E96.34758
G1 X123.5 Y97 E99.22758
G1 X123.779 Y97.04 E99.2614
G1 X124.036 Y97.156 E99.29523
G1 X124.251 Y97.339 E99.32911
G1 X124.405 Y97.575 E99.36293
G1 X124.488 Y97.845 E99.39683
G1 X124.5 Y98 E99.41548
G1 X124.5 Y122 E102.29548
G1 X124.46 Y122.279 E102.32931
G1 X124.344 Y122.536 E102.36314
G1 X124.161 Y122.751 E102.39702
G1 X123.925 Y122.905 E102.43084
G1 X123.655 Y122.988 E102.46473
G1 X123.5 Y123 E102.48339
G1 X115.364 Y123 E103.45971
G1 X115.321 Y123.16 E103.47959
G1 X115.023 Y123.88 E103.5731
G1 X114.893 Y124.106 E103.60439
G1 X114.416 Y124.729 E103.69854
G1 X114.23 Y124.915 E103.73011
G1 X113.607 Y125.392 E103.82426
G1 X113.383 Y125.522 E103.85534
G1 X112.663 Y125.821 E103.9489
G1 X112.41 Y125.888 E103.9803
G1 X111.631 Y125.991 E104.0746
G1 X111.369 Y125.991 E104.10604
G1 X110.591 Y125.888 E104.20021
G1 X110.339 Y125.821 E104.2315
G1 X109.618 Y125.522 E104.32517
G1 X109.392 Y125.392 E104.35645
G1 X108.77 Y124.915 E104.45052
G1 X108.586 Y124.73 E104.48183
G1 X108.108 Y124.107 E104.57606
G1 X107.977 Y123.879 E104.60761
G1 X107.68 Y123.159 E104.70107
G1 X107.637 Y123 E104.72084
G1 X99.5 Y123 E105.69728
G1 X99.221 Y122.96 E105.7311
G1 X98.964 Y122.844 E105.76494
G1 X98.749 Y122.661 E105.79882
G1 X98.595 Y122.425 E105.83263
G1 X98.512 Y122.155 E105.86653
G1 X98.5 Y122 E105.88518
G1 X98.5 Y98 E108.76518
G1 X98.54 Y97.721 E108.79901
G1 X98.656 Y97.464 E108.83284
G1 X98.839 Y97.249 E108.86672
G0 F3600 X99.053 Y97.599
G1 F1200 X99.226 Y97.466 E108.89291
G1 X99.5 Y97.4 E108.92673
G1 X123.5 Y97.4 E111.80673
G1 X123.715 Y97.44 E111.83297
G1 X123.901 Y97.553 E111.85909
G1 X124.034 Y97.726 E111.88527
G1 X124.1 Y98 E111.91909
G1 X124.1 Y122 E114.79909
G1 X124.06 Y122.215 E114.82534
G1 X123.947 Y122.401 E114.85145
G1 X123.774 Y122.534 E114.87764
G1 X123.5 Y122.6 E114.91146
G1 X115.026 Y122.6 E115.92834
G1 X114.992 Y122.857 E115.95945
G1 X114.951 Y123.007 E115.97811
G1 X114.653 Y123.727 E116.07162
G1 X114.575 Y123.863 E116.09043
G1 X114.098 Y124.486 E116.18459
G1 X113.987 Y124.597 E116.20342
G1 X113.364 Y125.074 E116.29758
G1 X113.229 Y125.152 E116.31629
G1 X112.509 Y125.451 E116.40984
G1 X112.358 Y125.492 E116.42862
G1 X111.579 Y125.595 E116.52291
G1 X111.421 Y125.595 E116.54187
G1 X110.643 Y125.492 E116.63605
G1 X110.492 Y125.451 E116.65482
G1 X109.771 Y125.152 E116.74849
G1 X109.636 Y125.074 E116.7672
G1 X109.014 Y124.597 E116.86126
G1 X108.903 Y124.486 E116.8801
G1 X108.425 Y123.863 E116.97433
G1 X108.346 Y123.727 E116.9932
G1 X108.049 Y123.007 E117.08666
G1 X108.009 Y122.858 E117.10518
G1 X107.974 Y122.6 E117.13642
G1 X99.5 Y122.6 E118.1533
G1 X99.285 Y122.56 E118.17954
G1 X99.099 Y122.447 E118.20566
G1 X98.966 Y122.274 E118.23184
G1 X98.9 Y122 E118.26567
G1 X98.9 Y98 E121.14567
G1 X98.94 Y97.785 E121.17191
G1 X99.053 Y97.599 E121.19802
G0 F3600 X99.339 Y97.881
G1 F1200 X99.5 Y97.8 E121.21965
G1 X123.5 Y97.8 E124.09965
G1 X123.619 Y97.839 E124.11468
