;START_OF_HEADER
;HEADER_VERSION:0.1
;FLAVOR:Griffin
;GENERATOR.NAME:Cura_SteamEngine
;GENERATOR.VERSION:3.1.0
;GENERATOR.BUILD_DATE:2018-02-01
;TARGET_MACHINE.NAME:Ultimaker 3 Extended
;EXTRUDER_TRAIN.0.INITIAL_TEMPERATURE:100
;EXTRUDER_TRAIN.0.MATERIAL.VOLUME_USED:1364
;EXTRUDER_TRAIN.0.MATERIAL.GUID:506c9f0d-e3aa-4bd4-b2d2-23e2425b1aa9
;EXTRUDER_TRAIN.0.NOZZLE.DIAMETER:0.4
;EXTRUDER_TRAIN.0.NOZZLE.NAME:AA 0.4
;EXTRUDER_TRAIN.1.INITIAL_TEMPERATURE:205
;EXTRUDER_TRAIN.1.MATERIAL.VOLUME_USED:126
;EXTRUDER_TRAIN.1.MATERIAL.GUID:506c9f0d-e3aa-4bd4-b2d2-23e2425b1aa9
;EXTRUDER_TRAIN.1.NOZZLE.DIAMETER:0.4
;EXTRUDER_TRAIN.1.NOZZLE.NAME:AA 0.4
;BUILD_PLATE.INITIAL_TEMPERATURE:60
;PRINT.TIME:2122
;PRINT.SIZE.MIN.X:9
;PRINT.SIZE.MIN.Y:6
;PRINT.SIZE.MIN.Z:0.27
;PRINT.SIZE.MAX.X:213
;PRINT.SIZE.MAX.Y:207
;PRINT.SIZE.MAX.Z:4.97
;END_OF_HEADER
;Generated with Cura_SteamEngine 3.1.0
T0
M82 ; absolute extrusion mode

T1
G92 E0
M109 S205
G0 F15000 X204 Y6 Z2
G280
G1 F1500 E-6.5
;LAYER_COUNT:29
;LAYER:0
M107
M204 S625
M205 X6 Y6
G0 F4285.7 X113.513 Y91.332 Z0.27
M104 T0 S205
M204 S500
M205 X5 Y5
;TYPE:SKIRT
G1 F1500 E0
G1 F1200 X113.859 Y91.782 E0.00841
G1 X114.137 Y92.276 E0.01681
G1 X114.343 Y92.804 E0.0252
G1 X114.473 Y93.356 E0.0336
G1 X114.525 Y94 E0.04317
G1 X114.525 Y118 E0.39869
G1 X114.485 Y118.566 E0.4071
G1 X114.366 Y119.12 E0.41549
G1 X114.17 Y119.652 E0.42389
G1 X113.902 Y120.152 E0.43229
G1 X113.565 Y120.608 E0.44069
G1 X113.168 Y121.013 E0.44909
G1 X112.718 Y121.359 E0.4575
G1 X112.224 Y121.637 E0.4659
G1 X111.696 Y121.843 E0.47429
G1 X111.144 Y121.973 E0.4827
G1 X110.5 Y122.025 E0.49227
G1 X104.234 Y122.025 E0.58509
G1 X103.818 Y122.568 E0.59522
G1 X103.442 Y122.993 E0.60363
G1 X103.069 Y123.317 E0.61094
G1 X102.446 Y123.794 E0.62257
G1 X101.972 Y124.106 E0.63097
G1 X101.543 Y124.315 E0.63804
G1 X100.823 Y124.614 E0.64959
G1 X100.285 Y124.794 E0.65799
G1 X99.807 Y124.887 E0.66521
G1 X99.028 Y124.99 E0.67685
G1 X98.462 Y125.025 E0.68525
G1 X97.972 Y124.99 E0.69253
G1 X97.194 Y124.887 E0.70415
G1 X96.638 Y124.773 E0.71256
G1 X96.18 Y124.615 E0.71974
G1 X95.459 Y124.316 E0.7313
G1 X94.952 Y124.062 E0.7397
G1 X94.552 Y123.792 E0.74685
G1 X93.93 Y123.315 E0.75846
G1 X93.505 Y122.939 E0.76686
G1 X93.186 Y122.571 E0.77408
G1 X92.767 Y122.025 E0.78427
G1 X86.5 Y122.025 E0.87711
G1 X85.934 Y121.985 E0.88551
G1 X85.38 Y121.866 E0.89391
G1 X84.848 Y121.67 E0.90231
G1 X84.348 Y121.402 E0.91071
G1 X83.892 Y121.065 E0.91911
G1 X83.487 Y120.668 E0.92751
G1 X83.141 Y120.218 E0.93592
G1 X82.863 Y119.724 E0.94432
G1 X82.657 Y119.196 E0.95271
G1 X82.527 Y118.644 E0.96111
G1 X82.475 Y118 E0.97068
G1 X82.475 Y94 E1.3262
G1 X82.515 Y93.434 E1.33461
G1 X82.634 Y92.88 E1.343
G1 X82.83 Y92.348 E1.3514
G1 X83.098 Y91.848 E1.3598
G1 X83.435 Y91.392 E1.3682
G1 X83.832 Y90.987 E1.3766
G1 X84.282 Y90.641 E1.38501
G1 X84.776 Y90.363 E1.39341
G1 X85.304 Y90.157 E1.4018
G1 X85.856 Y90.027 E1.41021
G1 X86.5 Y89.975 E1.41978
G1 X110.5 Y89.975 E1.7753
G1 X111.066 Y90.015 E1.7837
G1 X111.62 Y90.134 E1.79209
G1 X112.152 Y90.33 E1.80049
G1 X112.652 Y90.598 E1.8089
G1 X113.108 Y90.935 E1.8173
G1 X113.513 Y91.332 E1.8257
M204 S625
M205 X6 Y6
G0 F4285.7 X113.345 Y91.674
M204 S500
M205 X5 Y5
G1 F1200 X113.656 Y92.118 E1.83373
G1 X113.899 Y92.602 E1.84175
G1 X114.067 Y93.117 E1.84977
G1 X114.158 Y93.651 E1.8578
G1 X114.175 Y94 E1.86297
G1 X114.175 Y118 E2.21849
G1 X114.135 Y118.54 E2.22652
G1 X114.016 Y119.069 E2.23455
G1 X113.821 Y119.574 E2.24257
G1 X113.553 Y120.046 E2.25061
G1 X113.219 Y120.472 E2.25863
G1 X112.826 Y120.845 E2.26665
G1 X112.382 Y121.156 E2.27468
G1 X111.898 Y121.399 E2.2827
G1 X111.383 Y121.567 E2.29073
G1 X110.849 Y121.658 E2.29875
G1 X110.5 Y121.675 E2.30393
G1 X104.056 Y121.675 E2.39939
G1 X104.017 Y121.732 E2.40041
G1 X103.54 Y122.355 E2.41203
G1 X103.18 Y122.76 E2.42006
G1 X102.856 Y123.039 E2.42639
G1 X102.233 Y123.516 E2.43802
G1 X101.78 Y123.813 E2.44604
G1 X101.408 Y123.992 E2.45216
G1 X100.688 Y124.291 E2.4637
G1 X100.174 Y124.461 E2.47172
G1 X99.761 Y124.54 E2.47795
G1 X98.982 Y124.643 E2.48959
G1 X98.441 Y124.675 E2.49762
G1 X98.018 Y124.643 E2.5039
G1 X97.24 Y124.54 E2.51553
G1 X96.709 Y124.43 E2.52356
G1 X96.314 Y124.292 E2.52976
G1 X95.593 Y123.993 E2.54132
G1 X95.109 Y123.749 E2.54935
G1 X94.765 Y123.514 E2.55552
G1 X94.143 Y123.037 E2.56714
G1 X93.738 Y122.677 E2.57516
G1 X93.463 Y122.358 E2.5814
G1 X92.985 Y121.735 E2.59303
G1 X92.946 Y121.675 E2.59409
G1 X86.5 Y121.675 E2.68958
G1 X85.96 Y121.635 E2.6976
G1 X85.431 Y121.516 E2.70563
G1 X84.926 Y121.321 E2.71365
G1 X84.454 Y121.053 E2.72169
G1 X84.028 Y120.719 E2.72971
G1 X83.655 Y120.326 E2.73774
G1 X83.344 Y119.882 E2.74577
G1 X83.101 Y119.398 E2.75379
G1 X82.933 Y118.883 E2.76181
G1 X82.842 Y118.349 E2.76984
G1 X82.825 Y118 E2.77501
G1 X82.825 Y94 E3.13053
G1 X82.865 Y93.46 E3.13856
G1 X82.984 Y92.931 E3.14659
G1 X83.179 Y92.426 E3.15461
G1 X83.447 Y91.954 E3.16265
G1 X83.781 Y91.528 E3.17067
G1 X84.174 Y91.155 E3.17869
G1 X84.618 Y90.844 E3.18672
G1 X85.102 Y90.601 E3.19474
G1 X85.617 Y90.433 E3.20277
G1 X86.151 Y90.342 E3.21079
G1 X86.5 Y90.325 E3.21597
G1 X110.5 Y90.325 E3.57149
G1 X111.04 Y90.365 E3.57951
G1 X111.569 Y90.484 E3.58754
G1 X112.074 Y90.679 E3.59556
G1 X112.546 Y90.947 E3.6036
G1 X112.972 Y91.281 E3.61162
G1 X113.345 Y91.674 E3.61965
M204 S625
M205 X6 Y6
G0 F4285.7 X112.828 Y91.626
M204 S500
M205 X5 Y5
G1 F1200 X113.167 Y92.015 E3.62729
G1 X113.442 Y92.451 E3.63493
G1 X113.646 Y92.924 E3.64256
G1 X113.775 Y93.423 E3.65019
G1 X113.825 Y94 E3.65877
G1 X113.825 Y118 E4.01429
G1 X113.785 Y118.514 E4.02193
G1 X113.666 Y119.015 E4.02956
G1 X113.471 Y119.492 E4.03719
G1 X113.205 Y119.934 E4.04483
G1 X112.874 Y120.328 E4.05245
G1 X112.485 Y120.667 E4.0601
G1 X112.049 Y120.942 E4.06773
G1 X111.576 Y121.146 E4.07536
G1 X111.077 Y121.275 E4.083
G1 X110.5 Y121.325 E4.09158
G1 X103.872 Y121.325 E4.18976
G1 X103.739 Y121.519 E4.19324
G1 X103.262 Y122.142 E4.20487
G1 X102.918 Y122.526 E4.2125
G1 X102.643 Y122.761 E4.21786
G1 X102.02 Y123.238 E4.22949
G1 X101.588 Y123.519 E4.23712
G1 X101.274 Y123.669 E4.24228
G1 X100.554 Y123.968 E4.25382
G1 X100.064 Y124.128 E4.26146
G1 X99.715 Y124.193 E4.26672
G1 X98.936 Y124.296 E4.27836
G1 X98.421 Y124.324 E4.286
G1 X98.064 Y124.296 E4.2913
G1 X97.286 Y124.193 E4.30293
G1 X96.781 Y124.086 E4.31058
G1 X96.448 Y123.968 E4.31581
G1 X95.727 Y123.669 E4.32737
G1 X95.268 Y123.436 E4.335
G1 X94.978 Y123.236 E4.34021
G1 X94.356 Y122.759 E4.35183
G1 X93.972 Y122.415 E4.35946
G1 X93.741 Y122.145 E4.36473
G1 X93.263 Y121.522 E4.37636
G1 X93.135 Y121.325 E4.37984
G1 X86.5 Y121.325 E4.47812
G1 X85.986 Y121.285 E4.48576
G1 X85.485 Y121.166 E4.49339
G1 X85.008 Y120.971 E4.50102
G1 X84.566 Y120.705 E4.50867
G1 X84.172 Y120.374 E4.51629
G1 X83.833 Y119.985 E4.52393
G1 X83.558 Y119.549 E4.53157
G1 X83.354 Y119.076 E4.5392
G1 X83.225 Y118.577 E4.54683
G1 X83.175 Y118 E4.55541
G1 X83.175 Y94 E4.91093
G1 X83.215 Y93.486 E4.91857
G1 X83.334 Y92.985 E4.9262
G1 X83.529 Y92.508 E4.93383
G1 X83.795 Y92.066 E4.94147
G1 X84.126 Y91.672 E4.94909
G1 X84.515 Y91.333 E4.95674
G1 X84.951 Y91.058 E4.96437
G1 X85.424 Y90.854 E4.972
G1 X85.923 Y90.725 E4.97964
G1 X86.5 Y90.675 E4.98822
G1 X110.5 Y90.675 E5.34374
G1 X111.014 Y90.715 E5.35138
G1 X111.515 Y90.834 E5.359
G1 X111.992 Y91.029 E5.36664
G1 X112.434 Y91.295 E5.37428
G1 X112.828 Y91.626 E5.3819
M204 S625
M205 X6 Y6
G0 F4285.7 X112.675 Y91.971
M204 S500
M205 X5 Y5
G1 F1200 X112.978 Y92.353 E5.38912
G1 X113.213 Y92.78 E5.39634
G1 X113.376 Y93.239 E5.40356
G1 X113.462 Y93.719 E5.41078
G1 X113.475 Y94 E5.41495
G1 X113.475 Y118 E5.77047
G1 X113.435 Y118.486 E5.77769
G1 X113.316 Y118.959 E5.78492
G1 X113.122 Y119.406 E5.79214
G1 X112.857 Y119.815 E5.79936
G1 X112.529 Y120.175 E5.80657
G1 X112.147 Y120.478 E5.81379
G1 X111.72 Y120.713 E5.82101
G1 X111.261 Y120.876 E5.82823
G1 X110.781 Y120.962 E5.83545
G1 X110.5 Y120.975 E5.83962
G1 X103.673 Y120.975 E5.94075
G1 X103.625 Y121.069 E5.94231
G1 X103.461 Y121.307 E5.94659
G1 X102.984 Y121.93 E5.95822
G1 X102.657 Y122.291 E5.96543
G1 X102.431 Y122.483 E5.96983
G1 X101.808 Y122.96 E5.98145
G1 X101.398 Y123.224 E5.98867
G1 X101.14 Y123.346 E5.9929
G1 X100.42 Y123.645 E6.00445
G1 X99.956 Y123.794 E6.01167
G1 X99.669 Y123.846 E6.01599
G1 X98.89 Y123.949 E6.02763
G1 X98.403 Y123.973 E6.03485
G1 X98.11 Y123.949 E6.03921
G1 X97.332 Y123.846 E6.05083
G1 X96.855 Y123.743 E6.05806
G1 X96.582 Y123.645 E6.06236
G1 X95.861 Y123.346 E6.07392
G1 X95.428 Y123.123 E6.08113
G1 X95.191 Y122.959 E6.0854
G1 X94.569 Y122.482 E6.09701
G1 X94.207 Y122.154 E6.10425
G1 X94.019 Y121.932 E6.10856
G1 X93.541 Y121.309 E6.12019
G1 X93.326 Y120.975 E6.12608
G1 X86.5 Y120.975 E6.22719
G1 X86.014 Y120.935 E6.23442
G1 X85.541 Y120.816 E6.24164
G1 X85.094 Y120.622 E6.24886
G1 X84.685 Y120.357 E6.25608
G1 X84.325 Y120.029 E6.26329
G1 X84.022 Y119.647 E6.27051
G1 X83.787 Y119.22 E6.27773
G1 X83.624 Y118.761 E6.28495
G1 X83.538 Y118.281 E6.29217
G1 X83.525 Y118 E6.29634
G1 X83.525 Y94 E6.65186
G1 X83.565 Y93.514 E6.65908
G1 X83.684 Y93.041 E6.66631
G1 X83.878 Y92.594 E6.67353
G1 X84.143 Y92.185 E6.68075
G1 X84.471 Y91.825 E6.68796
G1 X84.853 Y91.522 E6.69518
G1 X85.28 Y91.287 E6.7024
G1 X85.739 Y91.124 E6.70962
G1 X86.219 Y91.038 E6.71684
G1 X86.5 Y91.025 E6.72101
G1 X110.5 Y91.025 E7.07653
G1 X110.986 Y91.065 E7.08375
G1 X111.459 Y91.184 E7.09098
G1 X111.906 Y91.378 E7.0982
G1 X112.315 Y91.643 E7.10541
G1 X112.675 Y91.971 E7.11263
M204 S625
M205 X6 Y6
G0 F4285.7 X112.512 Y92.314
M204 S500
M205 X5 Y5
G1 F1200 X112.774 Y92.689 E7.11941
G1 X112.967 Y93.104 E7.12619
G1 X113.085 Y93.546 E7.13296
G1 X113.125 Y94 E7.13971
G1 X113.125 Y118 E7.49523
G1 X113.085 Y118.456 E7.50201
G1 X112.967 Y118.898 E7.50879
G1 X112.773 Y119.313 E7.51558
G1 X112.51 Y119.688 E7.52236
G1 X112.186 Y120.012 E7.52915
G1 X111.811 Y120.274 E7.53593
G1 X111.396 Y120.467 E7.54271
G1 X110.954 Y120.585 E7.54948
G1 X110.5 Y120.625 E7.55623
G1 X103.453 Y120.625 E7.66062
G1 X103.183 Y121.094 E7.66864
G1 X102.706 Y121.717 E7.68026
G1 X102.397 Y122.055 E7.68705
G1 X102.218 Y122.205 E7.69051
G1 X101.595 Y122.682 E7.70213
G1 X101.006 Y123.022 E7.7122
G1 X100.286 Y123.321 E7.72375
G1 X99.849 Y123.459 E7.73054
G1 X99.623 Y123.499 E7.73394
G1 X98.844 Y123.602 E7.74558
G1 X98.387 Y123.623 E7.75236
G1 X98.155 Y123.602 E7.75581
G1 X97.377 Y123.499 E7.76743
G1 X96.716 Y123.322 E7.77757
G1 X95.995 Y123.023 E7.78913
G1 X95.404 Y122.681 E7.79925
G1 X94.782 Y122.204 E7.81086
G1 X94.444 Y121.895 E7.81764
G1 X94.296 Y121.719 E7.82105
G1 X93.818 Y121.096 E7.83268
G1 X93.572 Y120.71 E7.83946
G1 X93.533 Y120.625 E7.84085
G1 X86.5 Y120.625 E7.94503
G1 X86.044 Y120.585 E7.95181
G1 X85.602 Y120.467 E7.95859
G1 X85.187 Y120.273 E7.96537
G1 X84.812 Y120.01 E7.97216
G1 X84.488 Y119.686 E7.97894
G1 X84.226 Y119.311 E7.98572
G1 X84.033 Y118.896 E7.9925
G1 X83.915 Y118.454 E7.99928
G1 X83.875 Y118 E8.00603
G1 X83.875 Y94 E8.36155
G1 X83.915 Y93.544 E8.36833
G1 X84.033 Y93.102 E8.37511
G1 X84.227 Y92.687 E8.38189
G1 X84.49 Y92.312 E8.38868
G1 X84.814 Y91.988 E8.39547
G1 X85.189 Y91.726 E8.40224
G1 X85.604 Y91.533 E8.40902
G1 X86.046 Y91.415 E8.4158
G1 X86.5 Y91.375 E8.42255
G1 X110.5 Y91.375 E8.77807
G1 X110.956 Y91.415 E8.78485
G1 X111.398 Y91.533 E8.79163
G1 X111.813 Y91.727 E8.79841
G1 X112.188 Y91.99 E8.8052
G1 X112.512 Y92.314 E8.81199
M204 S625
M205 X6 Y6
G0 F4285.7 X112.334 Y92.654
M204 S500
M205 X5 Y5
G1 F1200 X112.553 Y93.02 E8.8183
G1 X112.7 Y93.42 E8.82462
G1 X112.775 Y94 E8.83328
G1 X112.775 Y118 E9.1888
G1 X112.735 Y118.424 E9.19511
G1 X112.617 Y118.834 E9.20143
G1 X112.424 Y119.214 E9.20774
G1 X112.164 Y119.551 E9.21405
G1 X111.846 Y119.834 E9.22035
G1 X111.48 Y120.053 E9.22667
G1 X111.08 Y120.2 E9.23298
G1 X110.5 Y120.275 E9.24165
G1 X103.239 Y120.275 E9.34921
G1 X103.201 Y120.368 E9.35069
G1 X102.905 Y120.881 E9.35947
G1 X102.428 Y121.504 E9.37109
G1 X102.005 Y121.927 E9.37995
G1 X101.382 Y122.404 E9.39158
G1 X100.872 Y122.699 E9.4003
G1 X100.152 Y122.998 E9.41185
G1 X99.577 Y123.152 E9.42067
G1 X98.798 Y123.255 E9.43231
G1 X98.201 Y123.255 E9.44115
G1 X97.423 Y123.152 E9.45278
G1 X96.851 Y122.998 E9.46155
G1 X96.13 Y122.699 E9.47312
G1 X95.617 Y122.403 E9.48189
G1 X94.995 Y121.926 E9.4935
G1 X94.574 Y121.506 E9.50231
G1 X94.096 Y120.883 E9.51394
G1 X93.798 Y120.366 E9.52278
G1 X93.76 Y120.275 E9.52424
G1 X86.5 Y120.275 E9.63179
G1 X86.076 Y120.235 E9.6381
G1 X85.666 Y120.117 E9.64442
G1 X85.286 Y119.924 E9.65073
G1 X84.949 Y119.664 E9.65703
G1 X84.666 Y119.346 E9.66334
G1 X84.447 Y118.98 E9.66966
G1 X84.3 Y118.58 E9.67597
G1 X84.225 Y118 E9.68463
G1 X84.225 Y94 E10.04015
G1 X84.265 Y93.576 E10.04646
G1 X84.383 Y93.166 E10.05278
G1 X84.576 Y92.786 E10.0591
G1 X84.836 Y92.449 E10.0654
G1 X85.154 Y92.166 E10.07171
G1 X85.52 Y91.947 E10.07802
G1 X85.92 Y91.8 E10.08434
G1 X86.5 Y91.725 E10.093
G1 X110.5 Y91.725 E10.44852
G1 X110.924 Y91.765 E10.45483
G1 X111.334 Y91.883 E10.46115
G1 X111.714 Y92.076 E10.46746
G1 X112.051 Y92.336 E10.47377
G1 X112.334 Y92.654 E10.48007
M204 S625
M205 X6 Y6
G0 F4285.7 X111.902 Y92.681
M204 S500
M205 X5 Y5
G1 F1200 X112.14 Y92.992 E10.48587
G1 X112.31 Y93.345 E10.49168
G1 X112.405 Y93.725 E10.49748
G1 X112.425 Y94 E10.50157
G1 X112.425 Y118 E10.85709
G1 X112.385 Y118.39 E10.86289
G1 X112.267 Y118.764 E10.8687
G1 X112.076 Y119.106 E10.8745
G1 X111.819 Y119.402 E10.88031
G1 X111.508 Y119.64 E10.88611
G1 X111.155 Y119.81 E10.89192
G1 X110.775 Y119.905 E10.89772
G1 X110.5 Y119.925 E10.9018
G1 X103.006 Y119.925 E11.01281
G1 X102.878 Y120.234 E11.01777
G1 X102.627 Y120.668 E11.0252
G1 X102.15 Y121.291 E11.03682
G1 X101.792 Y121.649 E11.04432
G1 X101.169 Y122.126 E11.05594
G1 X100.737 Y122.376 E11.06334
G1 X100.017 Y122.675 E11.07488
G1 X99.531 Y122.805 E11.08234
G1 X98.752 Y122.908 E11.09398
G1 X98.247 Y122.908 E11.10146
G1 X97.469 Y122.805 E11.11308
G1 X96.985 Y122.675 E11.12051
G1 X96.264 Y122.376 E11.13207
G1 X95.83 Y122.126 E11.13949
G1 X95.208 Y121.649 E11.1511
G1 X94.852 Y121.293 E11.15856
G1 X94.374 Y120.67 E11.17019
G1 X94.121 Y120.232 E11.17768
G1 X93.994 Y119.925 E11.1826
G1 X86.5 Y119.925 E11.29361
G1 X86.11 Y119.885 E11.29942
G1 X85.736 Y119.767 E11.30523
G1 X85.394 Y119.576 E11.31103
G1 X85.098 Y119.319 E11.31684
G1 X84.86 Y119.008 E11.32264
G1 X84.69 Y118.655 E11.32845
G1 X84.595 Y118.275 E11.33425
G1 X84.575 Y118 E11.33833
G1 X84.575 Y94 E11.69385
G1 X84.615 Y93.61 E11.69966
G1 X84.733 Y93.236 E11.70547
G1 X84.924 Y92.894 E11.71127
G1 X85.181 Y92.598 E11.71708
G1 X85.492 Y92.36 E11.72288
G1 X85.845 Y92.19 E11.72868
G1 X86.225 Y92.095 E11.73449
G1 X86.5 Y92.075 E11.73857
G1 X110.5 Y92.075 E12.09409
G1 X110.89 Y92.115 E12.0999
G1 X111.264 Y92.233 E12.10571
G1 X111.606 Y92.424 E12.11151
G1 X111.902 Y92.681 E12.11732
M204 S625
M205 X6 Y6
G0 F4285.7 X111.736 Y93.023
M204 S500
M205 X5 Y5
G1 F1200 X111.923 Y93.324 E12.12257
G1 X112.038 Y93.66 E12.12783
G1 X112.075 Y94 E12.13289
G1 X112.075 Y118 E12.48841
G1 X112.035 Y118.352 E12.49366
G1 X111.918 Y118.686 E12.4989
G1 X111.728 Y118.986 E12.50416
G1 X111.477 Y119.236 E12.50941
G1 X111.176 Y119.423 E12.51466
G1 X110.84 Y119.538 E12.51992
G1 X110.5 Y119.575 E12.52499
G1 X102.771 Y119.575 E12.63948
G1 X102.554 Y120.1 E12.64789
G1 X102.35 Y120.455 E12.65396
G1 X101.873 Y121.078 E12.66558
G1 X101.579 Y121.372 E12.67174
G1 X100.956 Y121.849 E12.68336
G1 X100.603 Y122.053 E12.6894
G1 X99.883 Y122.352 E12.70095
G1 X99.485 Y122.458 E12.70705
G1 X98.706 Y122.561 E12.71869
G1 X98.293 Y122.561 E12.72481
G1 X97.515 Y122.458 E12.73644
G1 X97.119 Y122.352 E12.74251
G1 X96.398 Y122.053 E12.75407
G1 X96.043 Y121.848 E12.76014
G1 X95.421 Y121.371 E12.77176
G1 X95.129 Y121.08 E12.77786
G1 X94.651 Y120.457 E12.78949
G1 X94.445 Y120.099 E12.79561
G1 X94.229 Y119.575 E12.80401
G1 X86.5 Y119.575 E12.9185
G1 X86.148 Y119.535 E12.92375
G1 X85.814 Y119.418 E12.92899
G1 X85.514 Y119.228 E12.93425
G1 X85.264 Y118.977 E12.9395
G1 X85.077 Y118.676 E12.94475
G1 X84.962 Y118.34 E12.95001
G1 X84.925 Y118 E12.95508
G1 X84.925 Y94 E13.31059
G1 X84.965 Y93.648 E13.31584
